X: 17671
T: Holly Bush, The
R: reel
M: 4/4
K: Dmixolydian
|:dB|A2FA DAFA|ABde fded|cGGF/G/ EGGF/G/|cedc AGEG|
A2FA DAFA|ABde fded|cGGF/G/ dded|cAGE D2z2:|
|:Addc defg|addc dcAB|c2cB cdeg|aged cAGc|
Addc defg|addc dcAB|c2cB cded|cAGE D2z2:|

